img/svg/net/hana.svg

<?xml version="1.0" encoding="iso-8859-1"?>
<!-- Generator: Adobe Illustrator 21.0.2, SVG Export Plug-In . SVG Version: 6.00 Build 0)  -->
<svg version="1.1" id="&#x56FE;&#x5C42;_1" xmlns="http://www.w3.org/2000/svg" xmlns:xlink="http://www.w3.org/1999/xlink" x="0px"
	 y="0px" viewBox="0 0 16 16" style="enable-background:new 0 0 16 16;" xml:space="preserve">
<g>
	<path d="M5.85,7.028l-0.5,1.575C5.499,8.66,5.671,8.693,5.855,8.693h0.001c0.179,0,0.347-0.032,0.494-0.085L5.86,7.028H5.85z"/>
	<path d="M9.587,6.518H9.24v1.268h0.347c0.463,0,0.832-0.153,0.832-0.642C10.419,6.671,10.05,6.518,9.587,6.518z"/>
	<path d="M0,4v7.914h8.086L16,4H0z M9.75,8.871H9.241v1.513H6.907L6.676,9.66C6.43,9.742,6.151,9.786,5.855,9.786
		c-0.303,0-0.589-0.048-0.84-0.133l-0.24,0.73h-1.43L3.502,9.96l-0.058,0.05c-0.357,0.287-0.803,0.444-1.355,0.455H2.006
		c-0.635,0-1.257-0.175-1.783-0.474L0.71,9.025c0.527,0.312,0.858,0.381,1.304,0.372c0.231-0.005,0.399-0.047,0.508-0.16
		c0.066-0.068,0.1-0.153,0.104-0.245C2.63,8.741,2.273,8.623,1.835,8.488c-0.355-0.111-0.756-0.26-1.071-0.49
		c-0.372-0.274-0.55-0.616-0.541-1.099C0.23,6.547,0.36,6.23,0.601,5.98c0.346-0.358,0.905-0.576,1.575-0.576H2.18
		c0.575,0.001,1.277,0.164,1.784,0.423L3.416,6.78c-0.555-0.269-0.835-0.294-1.152-0.31C1.793,6.444,1.554,6.613,1.551,6.794
		c-0.004,0.222,0.447,0.422,0.87,0.558c0.643,0.204,1.46,0.477,1.584,1.266l1.175-3.131h1.364L7.92,9.232V5.488h1.575l0,0.002
		c1.505,0,2.213,0.536,2.213,1.705C11.708,8.245,10.98,8.871,9.75,8.871z"/>
</g>
</svg>

<svg xmlns="http://www.w3.org/2000/svg" viewBox="0 0 16 16"><title>hana</title><path d="M5.85,7,5.35,8.6a1.44,1.44,0,0,0,.5.09h0a1.47,1.47,0,0,0,.49-.09L5.86,7Z"/><path d="M9.59,6.52H9.24V7.79h.35c.46,0,.83-.15.83-.64S10.05,6.52,9.59,6.52Z"/><path d="M0,4v7.91H8.09L16,4ZM9.75,8.87H9.24v1.51H6.91l-.23-.72A2.74,2.74,0,0,1,5,9.65l-.24.73H3.34L3.5,10,3.44,10a2.16,2.16,0,0,1-1.36.45H2A3.63,3.63,0,0,1,.22,10L.71,9A2.18,2.18,0,0,0,2,9.4a.69.69,0,0,0,.51-.16A.37.37,0,0,0,2.63,9c0-.25-.35-.37-.79-.5A3.72,3.72,0,0,1,.76,8,1.23,1.23,0,0,1,.22,6.9,1.33,1.33,0,0,1,.6,6,2.17,2.17,0,0,1,2.18,5.4h0A4.26,4.26,0,0,1,4,5.83l-.55,1a2.56,2.56,0,0,0-1.15-.31c-.47,0-.71.14-.71.32s.45.42.87.56c.64.2,1.46.48,1.58,1.27L5.18,5.49H6.54L7.92,9.23V5.49H9.5c1.51,0,2.21.54,2.21,1.71S11,8.87,9.75,8.87Z"/></svg>
